!!!OTL: 55. Kriegslied für die freiwilligen Jäger (14. Febr. 1813).
!!!ODT: 1813
!!!ARE: Europa, Mitteleuropa, Deutschland
!!!SCT: B0055
!!!TXL: @@DE
!!!YEM: Copyright 1995, estate of Helmut Schaffrath.
**kern	**text
*ICvox	*
*Ivox	*
!! Mixed meters:  6/8; 3/8
*M6/8	*
*clefG2	*
*k[b-e-]	*
*B-:	*
{8f	Friſch
=1	=1
4b-	auf,
8b-	ʒum
8b-/L	fröhli-
8aJ	.
8b-	-chen
=2	=2
*M3/8	*
8cc	Ja-
8b-}	-gen,
{8cc	es
=3	=3
*M6/8	*
4dd	iſt
8dd	nun
8ccL	an
8b-J	.
8cc	der
=4	=4
4.b-	Ʒeit!
4r}	.
{8f	Es
=5	=5
4b-	fängt
8b-	ſchon
8b-/L	an
8aJ	.
8b-	ʒu
=6	=6
*M3/8	*
8cc	ta-
8b-}	-gen,
{8cc	der
=7	=7
*M6/8	*
4dd	Kampf
8dd	iſt
8ccL	nicht
8b-J	.
8cc	mehr
=8	=8
4.b-	weit.
4r}	.
{16ddL	Auf,
16ee-J	.
=9	=9
4ff	laßt
8dd	die
8ddL	Fau-
8ccJ	.
8dd	-len
=10	=10
8ee-	lie-
4cc	-gen,
4r}	.
{8f	laßt
=11	=11
4ee-	ſie
8ee-	in
8ddL	ih-
8ee-J	.
8dd	-rer
=12	=12
[4.cc	Ruh!
8cc]	.
8r}	.
{8f	Wir
=13	=13
4b-	rü-
8b-	-cken
8b-/L	mit
8aJ	.
8b-	Ver-
=14	=14
*M3/8	*
8cc	-gnü-
8b-}	-gen
{8cc	dem
=15	=15
*M6/8	*
4dd	lie-
8dd	-ben
8ccL	Kö-
8b-J	.
8cc	-nig
=16	=16
4.b-	ʒu.
4r}	.
==	==
!!!AGN: Kriegs -, Sieges -, Soldaten - Lied
!!!GTL: Kriegs- und Siegeslieder
!!!ONB: ESAC (Essen Associative Code) Database: BOEHME
!!!AMT: irregular
!!!AIN: vox
!!!EED: Helmut Schaffrath
!!!EEV: 1.0
!!@@COMMENT:"Gedicht von Friedrich de la Motte-Fouque 1813, nach der alten Volksweiſe v. Jahre 1724:
!!"Auf, auf ʒum fröhlichen Jagen" (vergl. letʒteres Lied im Liederhort JJJ, S. 310)."
!!@@END:
!!Text: Friedrich de la Motte-Fouque
!!!URL-scan: https://archive.org/details/BoehmeVtLieder1895/page/n69/mode/2up
!!!ENC: Anna Maria Matuszewska
!!!EEV: 2024/14/06
*-	*-
